icon/lg/jwt.svg

<?xml version="1.0" encoding="UTF-8"?>
<svg viewBox="0 0 512 172" version="1.1" xmlns="http://www.w3.org/2000/svg" xmlns:xlink="http://www.w3.org/1999/xlink" preserveAspectRatio="xMidYMid" height="1em" width="1em">
  <g>
    <g>
      <polygon fill="#FFFFFF" points="98.1917808 46.0167056 98.020715 -7.31196668e-15 72.360842 -7.31196668e-15 72.5319078 46.0167056 85.3618443 63.6364851"/>
      <polygon fill="#FFFFFF" points="72.5319078 124.878049 72.5319078 171.06582 98.1917808 171.06582 98.1917808 124.878049 85.3618443 107.258269"/>
      <polygon fill="#00F2E6" points="98.1917808 124.878049 125.22018 162.170398 145.919145 147.116605 118.890745 109.824257 98.1917808 103.15269"/>
      <polygon fill="#00F2E6" points="72.5319078 46.0167056 45.3324424 8.72435683 24.6334781 23.778149 51.6618777 61.0704978 72.5319078 67.7420648"/>
      <polygon fill="#00B9F1" points="51.6618777 61.0704978 7.86902773 46.8720347 2.46897576e-15 71.1633812 43.79285 85.5329101 64.4918142 78.6902773"/>
      <polygon fill="#00B9F1" points="106.060809 92.2044771 118.890745 109.824257 162.683595 124.02272 170.552623 99.7313732 126.759773 85.5329101"/>
      <polygon fill="#D63AFF" points="126.759773 85.5329101 170.552623 71.1633812 162.683595 46.8720347 118.890745 61.0704978 106.060809 78.6902773"/>
      <polygon fill="#D63AFF" points="43.79285 85.5329101 2.46897576e-15 99.7313732 7.86902773 124.02272 51.6618777 109.824257 64.4918142 92.2044771"/>
      <polygon fill="#FB015B" points="51.6618777 109.824257 24.6334781 147.116605 45.3324424 162.170398 72.5319078 124.878049 72.5319078 103.15269"/>
      <polygon fill="#FB015B" points="118.890745 61.0704978 145.919145 23.778149 125.22018 8.72435683 98.1917808 46.0167056 98.1917808 67.7420648"/>
    </g>
    <path d="M266.349482,43.6217842 L266.349482,103.494821 C266.349482,116.666889 255.572335,127.444036 242.400267,127.444036 L242.400267,115.469429 C249.071834,115.469429 254.374875,110.166388 254.374875,103.494821 L254.374875,43.6217842 L266.349482,43.6217842 L266.349482,43.6217842 Z M484.9716,55.5963916 L512,55.5963916 L512,43.6217842 L446.139659,43.6217842 L446.139659,55.5963916 L472.996993,55.5963916 L472.996993,127.444036 L484.9716,127.444036 L484.9716,55.5963916 L484.9716,55.5963916 Z M410.044771,43.6217842 L410.044771,103.494821 C410.044771,110.166388 404.741731,115.469429 398.070164,115.469429 C391.398597,115.469429 386.095556,110.166388 386.095556,103.494821 L386.095556,67.570999 C386.095556,54.3989308 375.31841,43.6217842 362.146341,43.6217842 C348.974273,43.6217842 338.197127,54.3989308 338.197127,67.570999 L338.197127,103.494821 C338.197127,110.166388 332.894086,115.469429 326.222519,115.469429 C319.550952,115.469429 314.247912,110.166388 314.247912,103.494821 L314.247912,43.6217842 L302.273304,43.6217842 L302.273304,103.494821 C302.273304,116.666889 313.050451,127.444036 326.222519,127.444036 C339.394587,127.444036 350.171734,116.666889 350.171734,103.494821 L350.171734,67.570999 C350.171734,60.899432 355.474774,55.5963916 362.146341,55.5963916 C368.817908,55.5963916 374.120949,60.899432 374.120949,67.570999 L374.120949,67.570999 L374.120949,103.494821 C374.120949,116.666889 384.898096,127.444036 398.070164,127.444036 C411.242232,127.444036 422.019379,116.666889 422.019379,103.494821 L422.019379,43.6217842 L410.044771,43.6217842 L410.044771,43.6217842 Z" fill="#000000"/>
  </g>
</svg>

<svg width="512" height="172" xmlns="http://www.w3.org/2000/svg" preserveAspectRatio="xMidYMid"><path fill="#FFF" d="M98.192 46.017 98.02 0H72.36l.17 46.017 12.83 17.62zM72.532 124.878v46.188h25.66v-46.188l-12.83-17.62z"/><path fill="#00F2E6" d="m98.192 124.878 27.028 37.292 20.7-15.053-27.03-37.293-20.698-6.671zM72.532 46.017l-27.2-37.293-20.699 15.054L51.662 61.07l20.87 6.672z"/><path fill="#00B9F1" d="M51.662 61.07 7.869 46.872 0 71.163l43.793 14.37 20.699-6.843zM106.06 92.204l12.83 17.62 43.794 14.199 7.869-24.292-43.793-14.198z"/><path fill="#D63AFF" d="m126.76 85.533 43.793-14.37-7.87-24.291-43.792 14.198-12.83 17.62zM43.793 85.533 0 99.73l7.869 24.292 43.793-14.199 12.83-17.62z"/><path fill="#FB015B" d="m51.662 109.824-27.029 37.293 20.7 15.053 27.199-37.292v-21.725zM118.89 61.07l27.03-37.292-20.7-15.054-27.028 37.293v21.725z"/><path d="M266.35 43.622v59.873c0 13.172-10.778 23.949-23.95 23.949v-11.975c6.672 0 11.975-5.303 11.975-11.974V43.622h11.974Zm218.622 11.974H512V43.622h-65.86v11.974h26.857v71.848h11.975V55.596Zm-74.927-11.974v59.873c0 6.671-5.303 11.974-11.975 11.974-6.671 0-11.974-5.303-11.974-11.974V67.57c0-13.172-10.778-23.95-23.95-23.95-13.172 0-23.949 10.778-23.949 23.95v35.924c0 6.671-5.303 11.974-11.974 11.974-6.672 0-11.975-5.303-11.975-11.974V43.622h-11.975v59.873c0 13.172 10.777 23.949 23.95 23.949 13.172 0 23.949-10.777 23.949-23.95V67.572c0-6.672 5.303-11.975 11.974-11.975 6.672 0 11.975 5.303 11.975 11.975v35.924c0 13.172 10.777 23.949 23.95 23.949 13.171 0 23.948-10.777 23.948-23.95V43.623h-11.974Z"/></svg>
